!!!COM: Ernest Chausson
!!!CNT: Francais
!!!TXO: Francais
!!!OTL: Chanson Perpe/tuelle
!!!OPS: Op. 37
!!!LYR: Charles Cros
!!!ENC: Jacob Pegg
!!!YOR: 20 Songs for Voice and Piano, International Music Company, New York City, January, 1952
!!!ODT: 1898/
!!NB: Vocal melody and text only encoded.
!!publishing error in measure 73
**kern	**silbe
*clef G2	*
*k[b-e-a-d-g-]	*
*M4/4	*
=5	=5
{4.f	{Bois
16f	fris-
16f	-son-
[4g-	-nants
8g-]	|
8r	.
=6	=6
[4b-	ciel
12b-]	|
12b-	e/-
12b-	-toil-
2a-}	-e/}
=7	=7
8r	.
{8b-	{Mon
8g-	bien
8f	ai-
8.e-	-me/
16d-	s'en
8e-	est
8f	al-
=8	=8
[2b-	-le/
4b-]}	|}
{8cc-	{Em-
8dd-	-por-
=9	=9
8b-	-tant
8a-	mon
2f	coeur
8f-	de/-
8f-	-so-
=10	=10
2c}	-le/}
2r	.
=11	=11
4r	.
{[4cc	{Vents,
4cc_	|
8cc]	|
8r	.
=12	=12
8r	.
8dd-	que
8cc	vos
8b-	plain-
4cc	-ti-
8b-	-ves
8a-	ru-
=13	=13
2gn}	-meurs,}
4r	.
{8g-	{Que
8a-	vos
=14	=14
8f	chants
16f	ros-
16f	-sig-
8.f	-nois
16f	char-
2en}	-meurs,}
=15	=15
8r	.
{8f	{Ail-
8gn	-lent
8a-	lui
4.b-	di-
8c	-re
=16	=16
2b-	que
2f	je
=17	=17
1f}	meurs.}
=22	=22
*M12/8	*
4r	.
8r	.
{8f	{Le
8f	pre-
8f	-mier
4gn	soir
8an	qu'il
4gn	vint
8c	i-
=23	=23
4c}	-ci}
8r	.
4r	.
{8d-	{Mon
4a-	a^
8a-	-me
8.g-	fut
16g-	a\
16f	sa
16f	mer-
=24	=24
4e-}	-ci;}
8r	.
4r	.
8r	.
2.r	.
=25	=25
4r	.
8r	.
8r	.
{8a-	{De
8a-	fier-
8a-	-te/
8g-	je
8a-	n'eus
4g-	plus
8c-	sou-
=26	=26
8cn}	-ci.}
8r	.
8r	.
8r	.
{8g-	{Mes
8g-	re-
4b--	-gards
16b--	e/-
16b--	-taient
4a-	pleins
8g-	d'a-
=27	=27
4.a-	-veux,
8r	.
8a-	Il
8a-	me
4.b--	prit
16.b--	dans-
16.b--	-ses
16.a-	bras
16.g-	ner-
=28	=28
4.b--}	-veux}
{8b--	{Et
8b--	me
8b-	bai-
4cc-	-sa
[8cc-	pre\s
8cc-]	|
8cc-	des
8cc-	che-
=29	=29
*M4/4	*
[2ccn	-veux
4ccn]}	|}
4r	.
=30	=30
8r	.
{8cc	{J'en
8.dd-	eus
16gn	un
16gn	grand
16a-	fre/-
16gn	-mis-
16f	-se-
4f}	-ment}
=31	=31
2r	.
8r	.
{8gn	{Et
4gn	puis
=32	=32
12r	.
12g-	je
12g-	ne
12g-	sais
12g-	plus
12g-	com-
8dn}	-ment}
8r	.
4r	.
=33	=33
8r	.
{8c	{Il
12c	est
12c	de-
12c	-ve-
4c-	-nu
6c-	mon
12c-	a-
=34	=34
4B-}	-mant.}
4r	.
2r	.
=35	=35
2r	.
4r	.
16r	.
{16B-	{Je
16B-	lui
16B-	di-
=36	=36
2B-	-sai;
8r	.
8f	Tu
8f	m'ai-
8f	-me-
=37	=37
[2f	-ras
8f]	|
8f	Aus-
8f	-si
8f	long
=38	=38
[2b-	temps
8b-]	|
8dn	que
8dn	tu
8dn	pour-
=39	=39
[1an	-ras.
=40	=40
4an]}	|}
4r	.
2r	.
=41	=41
4r	.
{8c	{Je
8c	ne
8d#	dor-
8Bn	-mais
4Bn	bien
=42	=42
4r	.
[4Bn	qu'en
8Bn]	|
8en	ses
[4en	bras
=43	=43
8en]}	|}
8r	.
4r	.
2r	.
=44	=44
2r	.
8r	.
{8g-	{Mais
4g-	lui
=45	=45
8r	.
8f	sen-
8f	-tant
8f	son
8.a-	coeur
16f	e/-
4f	-teint,
=46	=46
8r	.
8b-	S'en
8g-	est
8f	al-
4e-	-le/
12d-	l'au-
12e-	-tre
12f	ma-
=47	=47
[2b-	-tin
8b-]}	|}
16r	.
{16cc-	{Sans
[4cc-	moi
=48	=48
2cc-]	|
8r	.
8b-	dans
8dd-	un
8ccn	pa-
=49	=49
2b-	-ys
(4an	loin-
4f)	|
=50	=50
[2f	-tain
4f]}	|}
4r	.
=51	=51
1r	.
=52	=52
1r	.
=53	=53
{8cc#	{Puis-
8cc#	-que
8ccn	je
8ccn	n'ai
4bn	plus
8bn	mon
8f#	a-
*k[f#c#]	*
=54	=54
*M2/4	*
2dd}	-mi}
=55	=55
*M4/4	*
8r	.
{4g#	{Je
8a	mour-
[4gn	-rai
12gn]	|
12f#	dans
12c#	l'e/-
=56	=56
2c#}	-tang}
8r	.
{8f#	{Par-
8g#	-mi
8g#	les
=57	=57
2a	fleurs
4r	.
8g#	sous
8f#	le
=58	=58
*M2/4	*
4f#	flot
8c#	en-
8a	-dor-
=59	=59
*M4/4	*
2g#}	-mi;}
2r	.
=60	=60
8r	.
{16g#	{Sur
16g#	le
8b	bord
16b	ar-
16b	-ri-
4.cc#	-ve/e.
8c#	Au
=61	=61
4cc#	vent
8cc#	je
8b	di-
8.b	-rai
16a	son
4a	nom
=62	=62
8r	.
4a	en
8g#	re^-
4.g#	-vant
8cc#	Que
=63	=63
4.dd	la\
8d	je
8d	l'at-
8d	-ten-
8.e	-dis
16e	sou-
=64	=64
[2f#	-vent
4f#_	|
8f#]}	|}
8r	.
=65	=65
2r	.
8r	.
{4c#	{Et
8d	comme
=66	=66
12d	en
12c#	un
12B	lin-
8.c#	-ceul
16d	do-
[4d	-re/
8d]}	|}
16r	.
{16d	{Dans
*k[b-e-a-d-g-]	*
=67	=67
16e-	mes
16e-	che-
16e-	-veux
16g-	de/-
4g-	-faits
8.r	.
16g-	Au
8a-	gre/
8an	du
=68	=68
4.an	vent
8f	je
8f	m'a-
8f	-ban-
8f	-don-
8f	-ne-
=69	=69
4f}	-rai.}
4r	.
2r	.
=70	=70
2r	.
{8a-	{Les
8a-	bon-
8ee-	-heurs
8ddn	pas-
=71	=71
2.cc-	-se/s
8cc-	ver-
8b-	-se-
=72	=72
4.b-	-ront
8ccn	leur
4dd-	dou-
8ccn	-ce
8dd-	lu-
=73	=73
2an	-eur
4.cc	sur
8f	mon
!!encoded precisely as printed
=74	=74
2f}	front}
8r	.
{8an	{Et
8gn	les
8f	joncs
=75	=75
4.f	verts
[8ddn	m'en-
8ddn]	|
4cc	-la-
8f	-ce-
=76	=76
[2a-	-ront
4a-]}	|}
4r	.
=77	=77
{8a-	{Et
8a-	mon
8.dd-	sein
16dd-	croi-
[2cc	-ra
=78	=78
4cc_	|
12cc]}	|}
{12b-	{fre/-
12b-	-mis-
4a-	-sant
8gn	sous
8a-	l'en-
=79	=79
8gn	-la-
8f	-ce-
2ff	-ment
8ff-	ca-
8ee-	-res-
=80	=80
2ddn}	-sant,}
8r	.
{8dd-	{su-
8.dd-	-bir
16dd-	l'e/-
=81	=81
([1cc	-trein-
=82	=82
4cc]	|
4b-)	-te
8r	.
4an	de
8ff	l'ab-
=83	=83
1ff}	sent!}
*-	*-
